icons/desktop/16/svg/paperclip-16.svg

<svg width="16" height="16" viewBox="0 0 16 16" fill="none" xmlns="http://www.w3.org/2000/svg">
<path d="M6.46191 0.0808298C8.87191 -0.41317 11 1.42478 11 3.74978V10.116C10.9998 11.2927 10.1561 12.3679 8.98633 12.4881C7.64139 12.626 6.5001 11.5677 6.5 10.2498V4.24977C6.5 3.83577 6.836 3.49978 7.25 3.49978C7.664 3.49978 8 3.83577 8 4.24977V10.2498C8.00009 10.6627 8.33706 10.9998 8.75 10.9998C9.16294 10.9998 9.49991 10.6627 9.5 10.2498V3.88356C9.49998 2.70668 8.65615 1.63165 7.48633 1.51149C6.14133 1.37349 5 2.43178 5 3.74978V10.6414C5 12.4304 6.20895 14.0597 7.96191 14.4187C10.3719 14.9127 12.4999 13.0747 12.5 10.7498V4.24977C12.5 3.83577 12.836 3.49978 13.25 3.49978C13.664 3.49978 14 3.83577 14 4.24977V10.7498C13.9999 13.8177 11.3536 16.2794 8.22461 15.9734C5.49782 15.7072 3.5 13.2553 3.5 10.5144V3.8572C3.50018 2.0684 4.70912 0.439855 6.46191 0.0808298Z" fill="black"/>
</svg>

<!-- This Source Code Form is subject to the terms of the Mozilla Public
   - License, v. 2.0. If a copy of the MPL was not distributed with this
   - file, You can obtain one at http://mozilla.org/MPL/2.0/. -->
<svg xmlns="http://www.w3.org/2000/svg" width="16" height="16" fill="context-fill" fill-opacity="context-fill-opacity" viewBox="0 0 16 16">
    <path d="M6.462.08A3.757 3.757 0 0 1 11 3.75v6.366c0 1.177-.844 2.252-2.014 2.372A2.254 2.254 0 0 1 6.5 10.25v-6a.75.75 0 0 1 1.5 0v6c0 .413.337.75.75.75s.75-.337.75-.75V3.884c0-1.177-.844-2.252-2.014-2.373A2.254 2.254 0 0 0 5 3.75v6.891c0 1.79 1.209 3.419 2.962 3.778a3.757 3.757 0 0 0 4.538-3.67v-6.5a.75.75 0 0 1 1.5 0v6.5a5.256 5.256 0 0 1-5.775 5.224C5.498 15.707 3.5 13.255 3.5 10.514V3.857C3.5 2.068 4.71.44 6.462.081" />
</svg>
